shield-account-variant-outline.svg

<svg fill="currentColor" viewBox="0 0 24 24"><path d="M17 14.4c.6 0 1.1.5 1.1 1.1s-.5 1.1-1.1 1.1-1.1-.5-1.1-1.1.5-1.1 1.1-1.1m0 3.1c-.7 0-2.2.4-2.2 1.1.5.7 1.3 1.2 2.2 1.2s1.7-.5 2.2-1.2c0-.7-1.5-1.1-2.2-1.1m1-6.4V6.3L10.5 3 3 6.3v4.9c0 4.5 3.2 8.8 7.5 9.8.6-.1 1.1-.3 1.6-.5C13.2 22 15 23 17 23c3.3 0 6-2.7 6-6 0-3-2.2-5.4-5-5.9M11 17c0 .6.1 1.1.2 1.6-.2.1-.5.2-.7.3-3.2-1-5.5-4.2-5.5-7.7V7.6l5.5-2.4L16 7.6v3.5c-2.8.5-5 2.9-5 5.9m6 4c-2.2 0-4-1.8-4-4s1.8-4 4-4 4 1.8 4 4-1.8 4-4 4"/></svg>

<svg  viewBox="0 0 24 24" fill="currentColor"><path  d="M17 14.4C17.6 14.4 18.1 14.9 18.1 15.5S17.6 16.6 17 16.6 15.9 16.1 15.9 15.5 16.4 14.4 17 14.4M17 17.5C16.3 17.5 14.8 17.9 14.8 18.6C15.3 19.3 16.1 19.8 17 19.8S18.7 19.3 19.2 18.6C19.2 17.9 17.7 17.5 17 17.5M18 11.1V6.3L10.5 3L3 6.3V11.2C3 15.7 6.2 20 10.5 21C11.1 20.9 11.6 20.7 12.1 20.5C13.2 22 15 23 17 23C20.3 23 23 20.3 23 17C23 14 20.8 11.6 18 11.1M11 17C11 17.6 11.1 18.1 11.2 18.6C11 18.7 10.7 18.8 10.5 18.9C7.3 17.9 5 14.7 5 11.2V7.6L10.5 5.2L16 7.6V11.1C13.2 11.6 11 14 11 17M17 21C14.8 21 13 19.2 13 17S14.8 13 17 13 21 14.8 21 17 19.2 21 17 21Z"/></svg>
